X: 7650
T: Cold Is Back, The
R: reel
M: 4/4
K: Dmajor
|:(3Bcd ed cAGF|GE E2 DF (3AGF|G2 (3Bcd edBA|ggfe dcAG|
(3Bcd ed cAGF|GAFE DF (3AGF|G2 (3Bcd gafe|dcAG A2 AG:|
egae ga e2|egae ga e2|degd ggfe|fedf eA A2|
egae ga e2|egae ga e2|degd ggfe|dcAG A2 AG|
(3efg ae ga e2|(3efg ae ag e2|degd ggfe|fedf eA A2|
(3Bcd ed cAGF|GAFE DF (3AGF|G2 (3Bcd gafe|dcAG A2 AG|

